src/main/resources/icons/AllIcons/diff/gutterCheckBoxSelected.svg

<!-- Copyright 2000-2021 JetBrains s.r.o. Use of this source code is governed by the Apache 2.0 license that can be found in the LICENSE file. -->
<svg xmlns="http://www.w3.org/2000/svg" width="12" height="12" viewBox="0 0 12 12">
  <g fill="none" fill-rule="evenodd">
    <path fill="#6E6E6E" d="M3,0 L9,0 C10.6568542,-3.04359188e-16 12,1.34314575 12,3 L12,9 C12,10.6568542 10.6568542,12 9,12 L3,12 C1.34314575,12 2.02906125e-16,10.6568542 0,9 L0,3 C-2.02906125e-16,1.34314575 1.34314575,3.04359188e-16 3,0 Z M3,1 C1.8954305,1 1,1.8954305 1,3 L1,9 C1,10.1045695 1.8954305,11 3,11 L9,11 C10.1045695,11 11,10.1045695 11,9 L11,3 C11,1.8954305 10.1045695,1 9,1 L3,1 Z"/>
    <rect width="1.714" height="4.571" x="3.479" y="4.907" fill="#6E6E6E" rx=".7" transform="rotate(-39 4.337 7.193)"/>
    <rect width="1.714" height="7.771" x="6.024" y="1.854" fill="#6E6E6E" rx=".7" transform="rotate(32.4 6.881 5.74)"/>
  </g>
</svg>

<svg xmlns="http://www.w3.org/2000/svg" width="12" height="12" viewBox="0 0 12 12"><rect id="frame" width="12" height="12" fill="none"/><g fill="#6E6E6E" fill-rule="evenodd"><path d="M3 0h6a3 3 0 0 1 3 3v6a3 3 0 0 1-3 3H3a3 3 0 0 1-3-3V3a3 3 0 0 1 3-3zm0 1a2 2 0 0 0-2 2v6a2 2 0 0 0 2 2h6a2 2 0 0 0 2-2V3a2 2 0 0 0-2-2H3z"/><rect width="1.714" height="4.571" x="3.479" y="4.907" rx=".7" transform="rotate(-39 4.337 7.193)"/><rect width="1.714" height="7.771" x="6.024" y="1.854" rx=".7" transform="rotate(32.4 6.881 5.74)"/></g></svg>
